packages/core/src/svgs/gswap.svg

<svg width="24" height="24" viewBox="0 0 24 24" fill="none" xmlns="http://www.w3.org/2000/svg">
<g clip-path="url(#clip0_31_11149)">
<path d="M0 0H24V24H0V0Z" fill="#7377D8"/>
<path d="M16.5 8.143L16.9285 6.42871H9.42854C8.85854 6.42871 7.62854 6.77157 7.28568 8.143L6.85711 11.143H8.35711L8.78568 9.00014C8.78568 8.713 8.99997 8.143 9.85711 8.143H16.5ZM16.5 8.143L16.2857 9.85728H10.0714L9.85711 11.143H18.8571L16.5 8.143ZM7.49997 15.8573L7.07139 17.5716H14.5714C15.1414 17.5716 16.3714 17.2287 16.7143 15.8573L17.1428 12.8573H15.6428L15.2143 15.0001C15.2143 15.2873 15 15.8573 14.1428 15.8573H7.49997ZM7.49997 15.8573L7.71425 14.143H13.9285L14.1428 12.8573H5.14282L7.49997 15.8573Z" fill="white"/>
</g>
<defs>
<clipPath id="clip0_31_11149">
<rect width="24" height="24" fill="white"/>
</clipPath>
</defs>
</svg>

<svg xmlns="http://www.w3.org/2000/svg" width="24" height="24" fill="none" viewBox="0 0 24 24"><g clip-path="url(#a)"><path fill="#7377D8" d="M0 0h24v24H0z"/><path fill="#fff" d="m16.5 8.143.428-1.714h-7.5c-.57 0-1.8.343-2.142 1.714l-.429 3h1.5L8.786 9c0-.287.214-.857 1.071-.857zm0 0-.214 1.714H10.07l-.214 1.286h9zm-9 7.714-.429 1.715h7.5c.57 0 1.8-.343 2.143-1.715l.429-3h-1.5L15.214 15c0 .287-.214.857-1.071.857zm0 0 .214-1.714h6.214l.215-1.286h-9z"/></g><defs><clipPath id="a"><path fill="#fff" d="M0 0h24v24H0z"/></clipPath></defs></svg>
